
!a o2c
!b o6c
!c o4g
!d !ar!b!b!cr!b!b

@v1 { 15 14 13 12 11 10 9 8 7 6 4 2 0 0 }
@v2 { 15 9 2 0 0 }

; saw
@1 { 0 0 1 1 2 2 3 3 4 4 5 5 6 6 7 7 8 8 9 9 10 10 11 11 12 12 13 13 14 14 15 15 }
; square
@2 { 15 15 15 15 15 15 15 15 15 15 15 15 15 15 15 15 0 0 0 0 0 0 0 0 0 0 0 0 0 0 0 0 }
; tri
@3 { 0 1 2 3 4 5 6 7 8 9 10 11 12 13 14 15 15 14 13 12 11 10 9 8 7 6 5 4 3 2 1 }

T125

A o4 @2 v10 l16 r8 r e- r e- r8		r8 r a r a r8
B o3 @2 @v1 v10 l16 r8 r g r g r8		r8 r c r c r8
C o2 @1 v12 c8^16 e-8^16 g8			f8r16 f8r16 d8
D @2 v15 @v2  l16 N1 !d!d

A o4 v10 l16 r8 r e- r e- r8		r8 r a r a r8
B o3 v10 l16 r8 r g r g r8		r8 r c r c r8
C c8^16 e-8^16 g8		f16r32 f16r32 f16 e-8 d8
D !d!d